22x22/actions/zoom-out-y.svg

<svg id="svg6" version="1.1" viewBox="0 0 22 22" xmlns="http://www.w3.org/2000/svg">
    <defs id="defs3051">
        <style id="current-color-scheme" type="text/css">.ColorScheme-Text {
        color:#555e70;
      }</style>
    </defs>
    <path id="path4" class="ColorScheme-Text" d="m3 3v2h1v-1h1v-1zm4 0v1h1v1h1v-2zm5 0v1h6v6h1v-7zm-9 4v2h2v-1h-1v-1zm5 0v1h-1v1h2v-2zm-5 5v7h7v-1h-6v-6zm11.998047 0.429688v4.65625l-1.621094-1.621094-0.707031 0.707031 2.828125 2.828125 2.830078-2.828125-0.707031-0.707031-1.623047 1.621094v-4.65625z" fill="currentColor"/>
</svg>

<svg viewBox="0 0 22 22" xmlns="http://www.w3.org/2000/svg"><path d="M3 3v2h1V4h1V3zm4 0v1h1v1h1V3zm5 0v1h6v6h1V3zM3 7v2h2V8H4V7zm5 0v1H7v1h2V7zm-5 5v7h7v-1H4v-6zm11.998.43v4.656l-1.621-1.621-.707.707L15.498 19l2.83-2.828-.707-.707-1.623 1.62V12.43z" fill="currentColor" style="color:#555e70"/></svg>
